public/images/hashed/6103df5fffbf274e61a8e9a6e689a3b3.svg

<?xml version="1.0" encoding="UTF-8"?>
<svg width="80px" height="80px" viewBox="0 0 80 80" version="1.1" xmlns="http://www.w3.org/2000/svg" xmlns:xlink="http://www.w3.org/1999/xlink">
    <!-- Generator: Sketch 64 (93537) - https://sketch.com -->
    <title>Icon-Architecture/64/Arch_AWS-Shield_64</title>
    <desc>Created with Sketch.</desc>
    <defs>
        <linearGradient x1="0%" y1="100%" x2="100%" y2="0%" id="linearGradient-1">
            <stop stop-color="#BD0816" offset="0%"></stop>
            <stop stop-color="#FF5252" offset="100%"></stop>
        </linearGradient>
    </defs>
    <g id="Icon-Architecture/64/Arch_AWS-Shield_64" stroke="none" stroke-width="1" fill="none" fill-rule="evenodd">
        <g id="Icon-Architecture-BG/64/Security-Identity-Compliance" fill="url(#linearGradient-1)">
            <rect id="Rectangle" x="0" y="0" width="80" height="80"></rect>
        </g>
        <path d="M54.0106622,49.9995 L52.0106622,49.9995 L52.0106622,53.9995 L48.0106622,53.9995 L48.0106622,55.9995 L52.0106622,55.9995 L52.0106622,59.9995 L54.0106622,59.9995 L54.0106622,55.9995 L58.0106622,55.9995 L58.0106622,53.9995 L54.0106622,53.9995 L54.0106622,49.9995 Z M61.0106622,54.9995 C61.0106622,50.5885 57.4216622,46.9995 53.0106622,46.9995 C48.5996622,46.9995 45.0106622,50.5885 45.0106622,54.9995 C45.0106622,59.4105 48.5996622,62.9995 53.0106622,62.9995 C57.4216622,62.9995 61.0106622,59.4105 61.0106622,54.9995 L61.0106622,54.9995 Z M63.0106622,54.9995 C63.0106622,60.5135 58.5246622,64.9995 53.0106622,64.9995 C47.4966622,64.9995 43.0106622,60.5135 43.0106622,54.9995 C43.0106622,49.4855 47.4966622,44.9995 53.0106622,44.9995 C58.5246622,44.9995 63.0106622,49.4855 63.0106622,54.9995 L63.0106622,54.9995 Z M36.0106622,57.9705 L36.0106622,22.4555 L25.0106622,26.6865 L25.0106622,46.9995 C25.0226622,47.4135 25.4066622,57.3795 36.0106622,57.9705 L36.0106622,57.9705 Z M49.0106622,43.6995 L49.0106622,26.6865 L38.0106622,22.4555 L38.0106622,57.9625 C39.1706622,57.8855 40.2476622,57.6805 41.2466622,57.3635 C41.3816622,58.0325 41.5806622,58.6775 41.8216622,59.3015 C40.3566622,59.7605 38.7516622,59.9995 37.0106622,59.9995 C23.4516622,59.9995 23.0136622,47.1515 23.0106622,47.0215 L23.0106622,25.9995 C23.0106622,25.5855 23.2656622,25.2145 23.6516622,25.0655 L36.6516622,20.0655 C36.8836622,19.9775 37.1376622,19.9775 37.3696622,20.0655 L50.3696622,25.0655 C50.7556622,25.2145 51.0106622,25.5855 51.0106622,25.9995 L51.0106622,43.1805 C50.3226622,43.2965 49.6546622,43.4715 49.0106622,43.6995 L49.0106622,43.6995 Z M44.7556622,63.6875 C45.3136622,64.2165 45.9206622,64.6925 46.5726622,65.1085 C43.8176622,66.3565 40.6146622,66.9875 37.0106622,66.9875 C30.6836622,66.9875 25.6396622,65.0625 22.0196622,61.2665 C15.5886622,54.5235 15.9906622,44.3805 16.0116622,43.9525 L16.0106622,21.9995 C16.0106622,21.5905 16.2596622,21.2235 16.6396622,21.0705 L36.6396622,13.0705 C36.8776622,12.9765 37.1436622,12.9765 37.3816622,13.0705 L57.3816622,21.0705 C57.7616622,21.2235 58.0106622,21.5905 58.0106622,21.9995 L58.0106622,43.9995 C58.0106622,43.9995 58.0126622,44.0435 58.0146622,44.1065 C57.3746622,43.8115 56.7056622,43.5745 56.0116622,43.3945 L56.0106622,22.6765 L37.0106622,15.0765 L18.0106622,22.6765 L18.0106622,43.9995 C18.0046622,44.1425 17.6356622,53.7835 23.4766622,59.8965 C26.7036622,63.2745 31.2576622,64.9875 37.0106622,64.9875 C39.8986622,64.9875 42.4856622,64.5455 44.7556622,63.6875 L44.7556622,63.6875 Z" id="AWS-Shield_Icon_64_Squid" fill="#FFFFFF"></path>
    </g>
</svg>

<svg xmlns="http://www.w3.org/2000/svg" width="80" height="80"><defs><linearGradient id="a" x1="0%" x2="100%" y1="100%" y2="0%"><stop offset="0%" stop-color="#BD0816"/><stop offset="100%" stop-color="#FF5252"/></linearGradient></defs><g fill="none" fill-rule="evenodd"><path fill="url(#a)" d="M0 0h80v80H0z"/><path fill="#FFF" d="M54.01 50h-2v4h-4v2h4v4h2v-4h4v-2h-4v-4Zm7 5c0-4.411-3.588-8-8-8-4.41 0-8 3.589-8 8 0 4.41 3.59 8 8 8 4.412 0 8-3.59 8-8Zm2 0c0 5.514-4.485 10-10 10-5.513 0-10-4.486-10-10s4.487-10 10-10c5.515 0 10 4.486 10 10Zm-27 2.97V22.456l-11 4.23V47c.013.414.397 10.38 11 10.971Zm13-14.27V26.686l-11-4.23v35.507a13.649 13.649 0 0 0 3.237-.6c.135.67.334 1.315.575 1.938-1.465.46-3.07.698-4.811.698-13.56 0-13.997-12.848-14-12.977V26c0-.415.255-.785.64-.934l13-5a1.01 1.01 0 0 1 .719 0l13 5c.386.149.64.52.64.934v17.18c-.687.117-1.355.291-2 .52Zm-4.254 19.987a12.1 12.1 0 0 0 1.817 1.422c-2.755 1.248-5.958 1.879-9.562 1.879-6.327 0-11.371-1.925-14.991-5.721-6.431-6.744-6.03-16.887-6.008-17.315L16.01 22c0-.41.249-.776.629-.93l20-8c.238-.094.504-.094.742 0l20 8c.38.154.629.52.629.93v22l.004.106a11.936 11.936 0 0 0-2.003-.712l-.001-20.717-19-7.6-19 7.6v21.322c-.006.143-.375 9.784 5.466 15.898 3.227 3.378 7.78 5.09 13.534 5.09 2.888 0 5.475-.441 7.745-1.3Z"/></g></svg>
